kora/actions/scalable/text-convert-to-regular.svg

<svg xmlns="http://www.w3.org/2000/svg" style="fill-rule:evenodd;clip-rule:evenodd;stroke-linejoin:round;stroke-miterlimit:2" width="100%" height="100%" version="1.1" viewBox="0 0 16 16" xml:space="preserve">
 <defs>
  <style id="current-color-scheme" type="text/css">
   .ColorScheme-Text { color:#dfdfdf; } .ColorScheme-Highlight { color:#4285f4; } .ColorScheme-NeutralText { color:#ff9800; } .ColorScheme-PositiveText { color:#4caf50; } .ColorScheme-NegativeText { color:#f44336; }
  </style>
 </defs>
 <path style="fill:currentColor;fill-opacity:0.3" class="ColorScheme-Text" d="M7,15l0,1l1,0l0,-1l-1,0Zm2,0l0,1l1,0l0,-1l-1,0Zm2,0l0,1l1,0l0,-1l-1,0Zm2,0l0,1l1,0l0,-1l-1,0Zm2,0l0,1l1,0l0,-1l-1,0Zm-8,-2l0,1l1,0l0,-1l-1,0Zm8,0l0,1l1,0l0,-1l-1,0Zm-8,-2l0,1l1,0l0,-1l-1,0Zm8,0l0,1l1,0l0,-1l-1,0Zm0,-2l0,1l1,0l0,-1l-1,0Zm-4,-2l0,1l1,0l0,-1l-1,0Zm2,0l0,1l1,0l0,-1l-1,0Zm2,0l0,1l1,0l0,-1l-1,0Z"/>
 <path style="fill:currentColor;fill-opacity:0.3" class="ColorScheme-Text" d="M0,0l0,9l9,0l0,-9l-9,0Zm1,1l7,0l0,7l-7,0l0,-7Z"/>
 <path style="fill:currentColor;" class="ColorScheme-Text" d="M9,9l0,2l1,-1l1,0l0,3l-1,1l3,0l-1,-1l0,-3l1,0l1,1l0,-2l-5,0Z"/>
 <path style="fill:currentColor;" class="ColorScheme-Text" d="M2,2l0,2l1,-1l1,0l0,3l-1,1l3,0l-1,-1l0,-3l1,0l1,1l0,-2l-5,0Z"/>
</svg>

<svg xmlns="http://www.w3.org/2000/svg" width="16" height="16" version="1.1">
 <defs>
  <style id="current-color-scheme" type="text/css">
   .ColorScheme-Text { color:#dfdfdf; } .ColorScheme-Highlight { color:#4285f4; }
  </style>
 </defs>
 <path style="fill:currentColor" class="ColorScheme-Text" d="M 11,7 V 8 H 12 V 7 Z M 13,7 V 8 H 14 V 7 Z M 15,7 V 8 H 16 V 7 Z M 15,9 V 10 H 16 V 9 Z M 7,11 V 12 H 8 V 11 Z M 15,11 V 12 H 16 V 11 Z M 7,13 V 14 H 8 V 13 Z M 15,13 V 14 H 16 V 13 Z M 7,15 V 16 H 8 V 15 Z M 9,15 V 16 H 10 V 15 Z M 11,15 V 16 H 12 V 15 Z M 13,15 V 16 H 14 V 15 Z M 15,15 V 16 H 16 V 15 Z M 9,9 V 11 L 10,10 H 11 V 13 L 10,14 H 13 L 12,13 V 10 H 13 L 14,11 V 9 Z M 0,0 V 9 H 9 V 0 Z M 1,1 H 8 V 8 H 1 Z M 2,2 V 4 L 3,3 H 4 V 6 L 3,7 H 6 L 5,6 V 3 H 6 L 7,4 V 2 Z"/>
</svg>
